app/assets/images/idv/interstitial_icons.svg

<svg width="207" height="88" viewBox="0 0 207 88" fill="none" xmlns="http://www.w3.org/2000/svg">
<circle cx="44" cy="44" r="42.5" fill="#F2F9FF" stroke="#A8B6C6" stroke-width="3"/>
<mask id="mask0_2606_7669" style="mask-type:alpha" maskUnits="userSpaceOnUse" x="0" y="0" width="88" height="88">
<circle cx="44" cy="44" r="42.5" fill="#F2F9FF" stroke="#A8B6C6" stroke-width="3"/>
</mask>
<g mask="url(#mask0_2606_7669)">
<path d="M72.5302 13.6362H22.8225V43.4624H72.5302V13.6362Z" fill="#EDF3FB"/>
<path d="M73.5524 44.4846H21.8V12.6138H73.5524V44.4846ZM23.8447 42.4399H71.5078V14.6584H23.8447V42.4399Z" fill="#EDF3FB"/>
<path d="M76.5116 8H19.5906C17.8429 8 16.4226 9.41768 16.4226 11.168V47.8165H79.6796V11.168C79.6796 9.41768 78.262 8 76.5116 8Z" fill="#0071BB" stroke="#205493" stroke-width="2" stroke-miterlimit="10"/>
<path d="M7.1001 67.8501H89.0001V70.1001C89.0001 71.757 87.657 73.1001 86.0001 73.1001H10.1001C8.44325 73.1001 7.1001 71.757 7.1001 70.1001V67.8501Z" fill="#205493"/>
<rect x="20.75" y="12.2" width="54.6" height="31.5" rx="2" fill="#EDF3FB"/>
<path d="M20.75 31.1001H75.35V41.7001C75.35 42.8047 74.4546 43.7001 73.35 43.7001H22.75C21.6454 43.7001 20.75 42.8047 20.75 41.7001V31.1001Z" fill="white"/>
<path d="M79.6738 47.8999L87.7707 66.8076C88.3568 68.1751 87.3536 69.6984 85.8646 69.6984H57.3817H38.709H10.226C8.73705 69.6984 7.73385 68.1751 8.31993 66.8076L16.4168 47.8999H79.6738Z" fill="#0071BB" stroke="#205493" stroke-width="2" stroke-miterlimit="10"/>
<path d="M76.9924 58.6402H19.1104L21.4177 52.1062H74.6876L76.9924 58.6402Z" fill="#EDF3FB"/>
<path d="M78.4843 59.6961H17.6165L20.6709 51.05H75.4351L78.4843 59.6961Z" fill="#205493"/>
<path d="M58.55 66.8H37.55L38.5384 61.5598H57.5595L58.55 66.8Z" fill="#205493"/>
</g>
<circle cx="44" cy="44" r="42.5" stroke="#A8B6C6" stroke-width="3"/>
<path d="M72.5302 13.6362H22.8225V43.4624H72.5302V13.6362Z" fill="#EDF3FB"/>
<path d="M73.5524 44.4846H21.8V12.6138H73.5524V44.4846ZM23.8447 42.4399H71.5078V14.6584H23.8447V42.4399Z" fill="#EDF3FB"/>
<path d="M76.5116 8H19.5906C17.8429 8 16.4226 9.41768 16.4226 11.168V47.8165H79.6796V11.168C79.6796 9.41768 78.262 8 76.5116 8Z" fill="#0071BB" stroke="#205493" stroke-width="2" stroke-miterlimit="10"/>
<rect x="20.75" y="12.2" width="54.6" height="31.5" rx="2" fill="#EDF3FB"/>
<path d="M20.75 31.1001H75.35V41.7001C75.35 42.8047 74.4546 43.7001 73.35 43.7001H22.75C21.6454 43.7001 20.75 42.8047 20.75 41.7001V31.1001Z" fill="white"/>
<path d="M11 35H32.2998C33.4044 35 34.2998 35.8954 34.2998 37V78.25C34.2998 79.3546 33.4044 80.25 32.2998 80.25H11C9.89543 80.25 9 79.3546 9 78.25V37C9 35.8954 9.89543 35 11 35Z" fill="#485F7A" stroke="#112E51" stroke-width="2"/>
<path d="M13.1499 38.7H30.1499C30.9783 38.7 31.6499 39.3715 31.6499 40.2V74.0496C31.6499 75.4303 30.5306 76.5496 29.1499 76.5496H14.1499C12.7692 76.5496 11.6499 75.4303 11.6499 74.0496V40.2C11.6499 39.3715 12.3215 38.7 13.1499 38.7Z" fill="#EDF3FB" stroke="#112E51"/>
<path d="M12.2 63.4L31.1 57.625V74C31.1 75.1046 30.2045 76 29.1 76H14.1999C13.0954 76 12.2 75.1046 12.2 74V63.4Z" fill="white"/>
<rect x="17.95" y="38.7" width="7.4" height="1.1" rx="0.55" fill="#112E51" stroke="#112E51"/>
<mask id="mask1_2606_7669" style="mask-type:alpha" maskUnits="userSpaceOnUse" x="5" y="26" width="33" height="32">
<rect x="5" y="26" width="33" height="32" fill="#D9D9D9"/>
</mask>
<g mask="url(#mask1_2606_7669)">
<path d="M11 35H32.2998C33.4044 35 34.2998 35.8954 34.2998 37V78.25C34.2998 79.3546 33.4044 80.25 32.2998 80.25H11C9.89543 80.25 9 79.3546 9 78.25V37C9 35.8954 9.89543 35 11 35Z" fill="#485F7A" stroke="#112E51" stroke-width="2"/>
<path d="M13.1499 38.7H30.1499C30.9783 38.7 31.6499 39.3715 31.6499 40.2V74.0496C31.6499 75.4303 30.5306 76.5496 29.1499 76.5496H14.1499C12.7692 76.5496 11.6499 75.4303 11.6499 74.0496V40.2C11.6499 39.3715 12.3215 38.7 13.1499 38.7Z" fill="#EDF3FB" stroke="#112E51"/>
<path d="M12.2 63.4L31.1 57.625V74C31.1 75.1046 30.2045 76 29.1 76H14.1999C13.0954 76 12.2 75.1046 12.2 74V63.4Z" fill="white"/>
<rect x="17.95" y="38.7" width="7.4" height="1.1" rx="0.55" fill="#112E51" stroke="#112E51"/>
</g>
<path d="M52.5883 20.6001H48.0471V36.7621C52.3556 34.8387 53.8617 32.3446 54.2429 31.5669C54.3144 31.4183 54.3512 31.2544 54.3499 31.0899V22.3777C54.3499 21.9062 54.1638 21.4542 53.8339 21.1209C53.671 20.9561 53.477 20.8252 53.2632 20.7358C53.0494 20.6464 52.82 20.6003 52.5883 20.6001Z" fill="#B51E23"/>
<path d="M43.5116 20.6001C42.5381 20.6001 41.75 21.3958 41.75 22.3777V31.0905C41.7486 31.2558 41.7848 31.419 41.8563 31.5676C42.2382 32.3383 43.763 34.8505 48.0479 36.7628V20.6001H43.5116Z" fill="#E21D3E"/>
<path d="M49.1652 27.5652C49.3836 27.3908 49.5588 27.1684 49.6772 26.9151C49.7955 26.6619 49.8537 26.3848 49.8473 26.1053C49.8409 25.8259 49.7701 25.5517 49.6403 25.3041C49.5106 25.0566 49.3254 24.8423 49.0992 24.6781C48.7963 24.4602 48.4329 24.3425 48.0598 24.3413C47.6865 24.3423 47.3229 24.4599 47.0198 24.6778C46.7168 24.8957 46.4895 25.2029 46.3697 25.5564C46.2479 25.9106 46.2386 26.2938 46.3431 26.6534C46.4477 27.0131 46.6609 27.3316 46.9536 27.5652C46.7557 28.6971 46.5599 29.8275 46.3669 30.9593C46.9224 31.0558 47.4848 31.1051 48.048 31.1051C48.6194 31.1169 49.1909 31.078 49.7561 30.9898C49.5575 29.8351 49.3742 28.704 49.1652 27.5652Z" fill="white"/>
<circle cx="163" cy="44" r="42.5" fill="#F2F9FF" stroke="#A8B6C6" stroke-width="3"/>
<mask id="mask2_2606_7669" style="mask-type:alpha" maskUnits="userSpaceOnUse" x="119" y="0" width="88" height="88">
<path d="M163 88C187.301 88 207 68.3005 207 44C207 19.6995 187.301 0 163 0C138.699 0 119 19.6995 119 44C119 68.3005 138.699 88 163 88Z" fill="white"/>
</mask>
<g mask="url(#mask2_2606_7669)">
<path d="M142.644 14.8002C142.302 14.8002 142.023 14.5208 142.023 14.1794V4.00118C142.023 3.65974 142.302 3.38037 142.644 3.38037C142.985 3.38037 143.264 3.65974 143.264 4.00118V14.1794C143.264 14.5208 142.985 14.8002 142.644 14.8002Z" fill="#F5D60C"/>
<path d="M138.692 16.4361C138.534 16.4361 138.375 16.374 138.254 16.253L131.056 9.05466C130.814 8.81255 130.814 8.41833 131.056 8.17622C131.298 7.9341 131.692 7.9341 131.935 8.17622L139.133 15.3745C139.375 15.6166 139.375 16.0109 139.133 16.253C139.012 16.374 138.853 16.4361 138.695 16.4361H138.692Z" fill="#F5D60C"/>
<path d="M137.056 20.3874H126.878C126.537 20.3874 126.257 20.108 126.257 19.7666C126.257 19.4251 126.537 19.1458 126.878 19.1458H137.056C137.398 19.1458 137.677 19.4251 137.677 19.7666C137.677 20.108 137.398 20.3874 137.056 20.3874Z" fill="#F5D60C"/>
<path d="M131.496 31.5343C131.338 31.5343 131.18 31.4722 131.059 31.3511C130.817 31.109 130.817 30.7148 131.059 30.4727L138.257 23.2744C138.499 23.0322 138.893 23.0322 139.136 23.2744C139.378 23.5165 139.378 23.9107 139.136 24.1528L131.937 31.3511C131.816 31.4722 131.658 31.5343 131.5 31.5343H131.496Z" fill="#F5D60C"/>
<path d="M142.644 36.153C142.302 36.153 142.023 35.8736 142.023 35.5322V25.354C142.023 25.0125 142.302 24.7332 142.644 24.7332C142.985 24.7332 143.264 25.0125 143.264 25.354V35.5322C143.264 35.8736 142.985 36.153 142.644 36.153Z" fill="#F5D60C"/>
<path d="M153.79 31.5343C153.632 31.5343 153.474 31.4722 153.353 31.3511L146.154 24.1528C145.912 23.9107 145.912 23.5165 146.154 23.2744C146.396 23.0322 146.791 23.0322 147.033 23.2744L154.231 30.4727C154.473 30.7148 154.473 31.109 154.231 31.3511C154.11 31.4722 153.952 31.5343 153.793 31.5343H153.79Z" fill="#F5D60C"/>
<path d="M158.409 20.3874H148.231C147.89 20.3874 147.61 20.108 147.61 19.7666C147.61 19.4251 147.89 19.1458 148.231 19.1458H158.409C158.751 19.1458 159.03 19.4251 159.03 19.7666C159.03 20.108 158.751 20.3874 158.409 20.3874Z" fill="#F5D60C"/>
<path d="M146.595 16.4361C146.437 16.4361 146.278 16.374 146.157 16.253C145.915 16.0109 145.915 15.6166 146.157 15.3745L153.356 8.17622C153.598 7.9341 153.992 7.9341 154.234 8.17622C154.476 8.41833 154.476 8.81255 154.234 9.05466L147.036 16.253C146.915 16.374 146.756 16.4361 146.598 16.4361H146.595Z" fill="#F5D60C"/>
<path d="M139.437 12.6459C139.192 12.6459 138.962 12.5 138.863 12.261L137.106 8.02089C136.975 7.70428 137.124 7.3411 137.441 7.21073C137.758 7.08036 138.121 7.22936 138.251 7.54597L140.008 11.7861C140.138 12.1027 139.989 12.4659 139.673 12.5963C139.595 12.6273 139.514 12.6428 139.437 12.6428V12.6459Z" fill="#CAB32D"/>
<path d="M134.899 17.1809C134.821 17.1809 134.741 17.1654 134.663 17.1343L130.423 15.3775C130.106 15.2471 129.954 14.8839 130.088 14.5673C130.218 14.2507 130.581 14.0986 130.898 14.2321L135.138 15.989C135.455 16.1193 135.607 16.4825 135.473 16.7991C135.374 17.0381 135.144 17.184 134.899 17.184V17.1809Z" fill="#CAB32D"/>
<path d="M130.659 25.3509C130.414 25.3509 130.184 25.205 130.085 24.966C129.954 24.6494 130.103 24.2862 130.42 24.1559L134.66 22.399C134.977 22.2686 135.34 22.4176 135.47 22.7342C135.601 23.0508 135.452 23.414 135.135 23.5444L130.895 25.3013C130.817 25.3323 130.737 25.3478 130.659 25.3478V25.3509Z" fill="#CAB32D"/>
<path d="M137.68 32.3723C137.603 32.3723 137.522 32.3568 137.444 32.3258C137.128 32.1954 136.976 31.8322 137.109 31.5156L138.866 27.2755C138.997 26.9589 139.36 26.8099 139.676 26.9402C139.993 27.0706 140.145 27.4338 140.012 27.7504L138.255 31.9905C138.155 32.2295 137.926 32.3754 137.68 32.3754V32.3723Z" fill="#CAB32D"/>
<path d="M147.607 32.3723C147.361 32.3723 147.132 32.2264 147.032 31.9873L145.275 27.7472C145.145 27.4306 145.294 27.0674 145.611 26.9371C145.927 26.8067 146.29 26.9557 146.421 27.2723L148.178 31.5124C148.308 31.829 148.159 32.1922 147.842 32.3226C147.765 32.3536 147.684 32.3692 147.607 32.3692V32.3723Z" fill="#CAB32D"/>
<path d="M154.628 25.3507C154.551 25.3507 154.47 25.3352 154.392 25.3042L150.152 23.5473C149.836 23.4169 149.687 23.0537 149.817 22.7371C149.947 22.4205 150.31 22.2715 150.627 22.4019L154.867 24.1588C155.184 24.2892 155.333 24.6523 155.202 24.969C155.103 25.208 154.873 25.3539 154.628 25.3539V25.3507Z" fill="#CAB32D"/>
<path d="M150.388 17.181C150.143 17.181 149.913 17.0351 149.814 16.7961C149.683 16.4795 149.832 16.1163 150.149 15.9859L154.389 14.229C154.706 14.0987 155.069 14.2477 155.199 14.5643C155.33 14.8809 155.181 15.2441 154.864 15.3744L150.624 17.1313C150.546 17.1624 150.466 17.1779 150.388 17.1779V17.181Z" fill="#CAB32D"/>
<path d="M145.85 12.646C145.772 12.646 145.692 12.6305 145.614 12.5994C145.297 12.4691 145.148 12.1059 145.279 11.7893L147.036 7.54915C147.166 7.23253 147.529 7.08354 147.846 7.21391C148.163 7.34428 148.312 7.70745 148.181 8.02407L146.424 12.2642C146.325 12.5032 146.095 12.6491 145.85 12.6491V12.646Z" fill="#CAB32D"/>
<path d="M159.585 8.19172C159.585 6.30445 158.058 4.77726 156.171 4.77726C158.058 4.77726 159.585 3.25006 159.585 1.36279C159.585 3.25006 161.113 4.77726 163 4.77726C161.113 4.77726 159.585 6.30445 159.585 8.19172Z" fill="#F5D60C"/>
<path d="M127.176 43.2209C127.176 40.8215 125.23 38.8752 122.831 38.8752C125.23 38.8752 127.176 36.929 127.176 34.5295C127.176 36.929 129.122 38.8752 131.522 38.8752C129.122 38.8752 127.176 40.8215 127.176 43.2209Z" fill="#F5D60C"/>
<rect x="139" y="27.0002" width="48" height="11" fill="#112E51"/>
<rect x="139" y="38.0002" width="48" height="51" fill="#485F7A"/>
<path d="M180.383 15.1326H145.618C141.503 15.1326 138.168 18.4679 138.168 22.5823V27.0003H187.833V22.5823C187.833 18.4679 184.497 15.1326 180.383 15.1326Z" fill="#0071BB"/>
<path d="M143.71 47.6252H182.03C182.585 47.6549 183.099 48.1634 183.133 48.7317V67.5793C183.133 67.7489 183.025 68.0295 182.782 68.2854C182.544 68.5368 182.269 68.6643 182.048 68.6643H143.71C143.498 68.6643 143.222 68.5388 142.979 68.2844C142.733 68.0262 142.625 67.7454 142.625 67.5793V48.7102L142.63 48.6448C142.654 48.4818 142.763 48.2382 142.98 48.009C143.225 47.7513 143.501 47.6252 143.71 47.6252Z" fill="white" stroke="#A8B6C6" stroke-width="1.25"/>
<rect x="144.709" y="49.8833" width="13.7504" height="16.697" rx="1" fill="#A8B6C6"/>
<rect x="161.406" y="49.8833" width="19.6435" height="2.94652" rx="1" fill="#A8B6C6"/>
<rect x="161.406" y="54.7942" width="19.6435" height="2.94652" rx="1" fill="#A8B6C6"/>
<rect x="161.406" y="59.7051" width="11.7861" height="2.94652" rx="1" fill="#A8B6C6"/>
<rect x="175.156" y="59.7051" width="5.89305" height="6.87522" rx="1" fill="#A8B6C6"/>
<path d="M171.458 22.9156C172.263 22.9156 172.915 22.263 172.915 21.4579C172.915 20.6529 172.263 20.0002 171.458 20.0002C170.653 20.0002 170 20.6529 170 21.4579C170 22.263 170.653 22.9156 171.458 22.9156Z" fill="white"/>
<path d="M176.317 22.9156C177.122 22.9156 177.774 22.263 177.774 21.4579C177.774 20.6529 177.122 20.0002 176.317 20.0002C175.512 20.0002 174.859 20.6529 174.859 21.4579C174.859 22.263 175.512 22.9156 176.317 22.9156Z" fill="white"/>
<path d="M181.175 22.9156C181.981 22.9156 182.633 22.263 182.633 21.4579C182.633 20.6529 181.981 20.0002 181.175 20.0002C180.37 20.0002 179.718 20.6529 179.718 21.4579C179.718 22.263 180.37 22.9156 181.175 22.9156Z" fill="white"/>
<path d="M144 21.5002C144 20.6718 144.672 20.0002 145.5 20.0002H151.5C152.328 20.0002 153 20.6718 153 21.5002C153 22.3287 152.328 23.0002 151.5 23.0002H145.5C144.672 23.0002 144 22.3287 144 21.5002Z" fill="white"/>
<path d="M180.383 103.288H145.617C140.824 103.288 136.926 99.389 136.926 94.5963V22.5822C136.926 17.7896 140.824 13.8909 145.617 13.8909H180.383C185.175 13.8909 189.074 17.7896 189.074 22.5822V94.5963C189.074 99.389 185.175 103.288 180.383 103.288ZM145.617 16.3741C142.193 16.3741 139.409 19.1585 139.409 22.5822V94.5963C139.409 98.0201 142.193 100.804 145.617 100.804H180.383C183.806 100.804 186.591 98.0201 186.591 94.5963V22.5822C186.591 19.1585 183.806 16.3741 180.383 16.3741H145.617Z" fill="#112E51"/>
<path d="M187.832 40.5857H188.453C188.794 40.5857 189.073 40.8651 189.073 41.2065V46.173C189.073 46.5144 188.794 46.7938 188.453 46.7938H187.832V40.5857Z" fill="#EBF3FA"/>
<path d="M188.453 47.2594H187.367V40.1201H188.453C189.052 40.1201 189.54 40.6075 189.54 41.2065V46.173C189.54 46.7721 189.052 47.2594 188.453 47.2594ZM188.298 46.3282H188.453C188.54 46.3282 188.608 46.2599 188.608 46.173V41.2065C188.608 41.1196 188.54 41.0513 188.453 41.0513H188.298V46.3282Z" fill="#112E51"/>
<path d="M187.832 48.3459H188.453C188.794 48.3459 189.073 48.6253 189.073 48.9668V53.9332C189.073 54.2747 188.794 54.5541 188.453 54.5541H187.832V48.3459Z" fill="#EBF3FA"/>
<path d="M188.453 55.0197H187.367V47.8804H188.453C189.052 47.8804 189.54 48.3677 189.54 48.9668V53.9333C189.54 54.5324 189.052 55.0197 188.453 55.0197ZM188.298 54.0885H188.453C188.54 54.0885 188.608 54.0202 188.608 53.9333V48.9668C188.608 48.8799 188.54 48.8116 188.453 48.8116H188.298V54.0885Z" fill="#112E51"/>
<path d="M138.168 53.002H137.547C137.205 53.002 136.926 52.7226 136.926 52.3811V41.2065C136.926 40.8651 137.205 40.5857 137.547 40.5857H138.168V53.002Z" fill="#EBF3FA"/>
<path d="M138.633 53.4676H137.546C136.947 53.4676 136.46 52.9802 136.46 52.3811V41.2065C136.46 40.6075 136.947 40.1201 137.546 40.1201H138.633V53.4676ZM137.546 41.0513C137.459 41.0513 137.391 41.1196 137.391 41.2065V52.3811C137.391 52.4681 137.459 52.5363 137.546 52.5363H137.702V41.0513H137.546Z" fill="#112E51"/>
</g>
<circle cx="163" cy="44" r="42.5" stroke="#A8B6C6" stroke-width="3"/>
<circle cx="163" cy="44" r="42.5" stroke="#A8B6C6" stroke-width="3"/>
<line x1="89" y1="44" x2="121" y2="44" stroke="#A8B6C6" stroke-width="2"/>
<circle cx="121" cy="44" r="3" fill="#F2F9FF" stroke="#A8B6C6" stroke-width="2"/>
<circle cx="87" cy="44" r="3" fill="#F2F9FF" stroke="#A8B6C6" stroke-width="2"/>
</svg>

<svg xmlns="http://www.w3.org/2000/svg" width="207" height="88" fill="none" viewBox="0 0 207 88"><circle cx="44" cy="44" r="42.5" fill="#F2F9FF" stroke="#A8B6C6" stroke-width="3"/><mask id="a" width="88" height="88" x="0" y="0" maskUnits="userSpaceOnUse" style="mask-type:alpha"><circle cx="44" cy="44" r="42.5" fill="#F2F9FF" stroke="#A8B6C6" stroke-width="3"/></mask><g mask="url(#a)"><path fill="#EDF3FB" d="M72.53 13.636H22.823v29.826H72.53z"/><path fill="#EDF3FB" d="M73.552 44.485H21.8V12.614h51.752zM23.845 42.44h47.663V14.658H23.845z"/><path fill="#0071BB" stroke="#205493" stroke-miterlimit="10" stroke-width="2" d="M76.512 8H19.59a3.17 3.17 0 0 0-3.168 3.168v36.649H79.68v-36.65A3.167 3.167 0 0 0 76.512 8Z"/><path fill="#205493" d="M7.1 67.85H89v2.25a3 3 0 0 1-3 3H10.1a3 3 0 0 1-3-3z"/><rect width="54.6" height="31.5" x="20.75" y="12.2" fill="#EDF3FB" rx="2"/><path fill="#fff" d="M20.75 31.1h54.6v10.6a2 2 0 0 1-2 2h-50.6a2 2 0 0 1-2-2z"/><path fill="#0071BB" stroke="#205493" stroke-miterlimit="10" stroke-width="2" d="m79.674 47.9 8.097 18.908a2.074 2.074 0 0 1-1.906 2.89H10.226a2.074 2.074 0 0 1-1.906-2.89L16.417 47.9z"/><path fill="#EDF3FB" d="M76.992 58.64H19.11l2.308-6.534h53.27z"/><path fill="#205493" d="M78.484 59.696H17.617l3.054-8.646h54.764zM58.55 66.8h-21l.988-5.24H57.56z"/></g><circle cx="44" cy="44" r="42.5" stroke="#A8B6C6" stroke-width="3"/><path fill="#EDF3FB" d="M72.53 13.636H22.823v29.826H72.53z"/><path fill="#EDF3FB" d="M73.552 44.485H21.8V12.614h51.752zM23.845 42.44h47.663V14.658H23.845z"/><path fill="#0071BB" stroke="#205493" stroke-miterlimit="10" stroke-width="2" d="M76.512 8H19.59a3.17 3.17 0 0 0-3.168 3.168v36.649H79.68v-36.65A3.167 3.167 0 0 0 76.512 8Z"/><rect width="54.6" height="31.5" x="20.75" y="12.2" fill="#EDF3FB" rx="2"/><path fill="#fff" d="M20.75 31.1h54.6v10.6a2 2 0 0 1-2 2h-50.6a2 2 0 0 1-2-2z"/><path fill="#485F7A" stroke="#112E51" stroke-width="2" d="M11 35h21.3a2 2 0 0 1 2 2v41.25a2 2 0 0 1-2 2H11a2 2 0 0 1-2-2V37a2 2 0 0 1 2-2Z"/><path fill="#EDF3FB" stroke="#112E51" d="M13.15 38.7h17a1.5 1.5 0 0 1 1.5 1.5v33.85a2.5 2.5 0 0 1-2.5 2.5h-15a2.5 2.5 0 0 1-2.5-2.5V40.2a1.5 1.5 0 0 1 1.5-1.5Z"/><path fill="#fff" d="m12.2 63.4 18.9-5.775V74a2 2 0 0 1-2 2H14.2a2 2 0 0 1-2-2z"/><rect width="7.4" height="1.1" x="17.95" y="38.7" fill="#112E51" stroke="#112E51" rx=".55"/><mask id="b" width="33" height="32" x="5" y="26" maskUnits="userSpaceOnUse" style="mask-type:alpha"><path fill="#D9D9D9" d="M5 26h33v32H5z"/></mask><g mask="url(#b)"><path fill="#485F7A" stroke="#112E51" stroke-width="2" d="M11 35h21.3a2 2 0 0 1 2 2v41.25a2 2 0 0 1-2 2H11a2 2 0 0 1-2-2V37a2 2 0 0 1 2-2Z"/><path fill="#EDF3FB" stroke="#112E51" d="M13.15 38.7h17a1.5 1.5 0 0 1 1.5 1.5v33.85a2.5 2.5 0 0 1-2.5 2.5h-15a2.5 2.5 0 0 1-2.5-2.5V40.2a1.5 1.5 0 0 1 1.5-1.5Z"/><path fill="#fff" d="m12.2 63.4 18.9-5.775V74a2 2 0 0 1-2 2H14.2a2 2 0 0 1-2-2z"/><rect width="7.4" height="1.1" x="17.95" y="38.7" fill="#112E51" stroke="#112E51" rx=".55"/></g><path fill="#B51E23" d="M52.588 20.6h-4.54v16.162c4.308-1.923 5.814-4.417 6.195-5.195.071-.149.108-.313.107-.477v-8.712c0-.472-.186-.924-.516-1.257a1.75 1.75 0 0 0-1.246-.52"/><path fill="#E21D3E" d="M43.512 20.6a1.77 1.77 0 0 0-1.762 1.778v8.712c-.001.166.035.329.106.478.382.77 1.907 3.282 6.192 5.195V20.6z"/><path fill="#fff" d="M49.165 27.565a1.816 1.816 0 0 0-.066-2.887 1.8 1.8 0 0 0-1.04-.337 1.79 1.79 0 0 0-1.69 1.215 1.82 1.82 0 0 0 .585 2.01 822 822 0 0 0-.587 3.393 10 10 0 0 0 1.681.146 10 10 0 0 0 1.708-.115c-.199-1.155-.382-2.286-.59-3.425"/><circle cx="163" cy="44" r="42.5" fill="#F2F9FF" stroke="#A8B6C6" stroke-width="3"/><mask id="c" width="88" height="88" x="119" y="0" maskUnits="userSpaceOnUse" style="mask-type:alpha"><path fill="#fff" d="M163 88c24.301 0 44-19.7 44-44S187.301 0 163 0s-44 19.7-44 44 19.699 44 44 44"/></mask><g mask="url(#c)"><path fill="#F5D60C" d="M142.644 14.8a.62.62 0 0 1-.621-.62V4a.621.621 0 0 1 1.241 0v10.18a.62.62 0 0 1-.62.621m-3.952 1.635a.62.62 0 0 1-.438-.183l-7.198-7.198a.622.622 0 0 1 .879-.879l7.198 7.198a.622.622 0 0 1-.438 1.062zm-1.636 3.951h-10.178a.623.623 0 0 1-.621-.62c0-.342.28-.621.621-.621h10.178c.342 0 .621.28.621.62a.62.62 0 0 1-.621.621m-5.56 11.147a.622.622 0 0 1-.437-1.062l7.198-7.198a.623.623 0 0 1 .879.879l-7.199 7.198a.62.62 0 0 1-.437.183zm11.148 4.619a.62.62 0 0 1-.621-.62v-10.18a.62.62 0 0 1 1.241 0v10.178a.62.62 0 0 1-.62.621m11.146-4.618a.62.62 0 0 1-.437-.183l-7.199-7.198a.622.622 0 0 1 .879-.879l7.198 7.199a.622.622 0 0 1-.438 1.061zm4.619-11.147h-10.178a.623.623 0 0 1-.621-.62c0-.342.28-.621.621-.621h10.178c.342 0 .621.28.621.62a.62.62 0 0 1-.621.621m-11.814-3.951a.622.622 0 0 1-.438-1.062l7.199-7.198a.621.621 0 0 1 .878.879l-7.198 7.198a.62.62 0 0 1-.438.183z"/><path fill="#CAB32D" d="M139.437 12.646a.62.62 0 0 1-.574-.385l-1.757-4.24a.619.619 0 1 1 1.145-.475l1.757 4.24a.62.62 0 0 1-.571.857zm-4.538 4.534a.6.6 0 0 1-.236-.046l-4.24-1.757a.617.617 0 0 1-.335-.81.617.617 0 0 1 .81-.335l4.24 1.757a.621.621 0 0 1-.239 1.195zm-4.24 8.17a.621.621 0 0 1-.239-1.194l4.24-1.757a.62.62 0 1 1 .475 1.145l-4.24 1.757a.6.6 0 0 1-.236.047zm7.021 7.022a.618.618 0 0 1-.571-.857l1.757-4.24a.62.62 0 0 1 1.146.475l-1.757 4.24a.62.62 0 0 1-.575.385zm9.927 0a.62.62 0 0 1-.575-.385l-1.757-4.24a.62.62 0 0 1 1.146-.475l1.757 4.24a.62.62 0 0 1-.571.857zm7.021-7.022a.6.6 0 0 1-.236-.046l-4.24-1.757a.62.62 0 0 1 .475-1.145l4.24 1.757a.621.621 0 0 1-.239 1.195zm-4.24-8.169a.621.621 0 0 1-.239-1.195l4.24-1.757a.62.62 0 1 1 .475 1.145l-4.24 1.757a.6.6 0 0 1-.236.047zm-4.538-4.535a.62.62 0 0 1-.571-.857l1.757-4.24a.62.62 0 1 1 1.145.475l-1.757 4.24a.62.62 0 0 1-.574.385z"/><path fill="#F5D60C" d="M159.585 8.192a3.41 3.41 0 0 0-3.414-3.415 3.41 3.41 0 0 0 3.414-3.414A3.413 3.413 0 0 0 163 4.777a3.413 3.413 0 0 0-3.415 3.415M127.176 43.22a4.347 4.347 0 0 0-4.345-4.345 4.346 4.346 0 0 0 4.345-4.346c0 2.4 1.946 4.346 4.346 4.346a4.346 4.346 0 0 0-4.346 4.346"/><path fill="#112E51" d="M139 27h48v11h-48z"/><path fill="#485F7A" d="M139 38h48v51h-48z"/><path fill="#0071BB" d="M180.383 15.133h-34.765a7.45 7.45 0 0 0-7.45 7.45V27h49.665v-4.418a7.45 7.45 0 0 0-7.45-7.45"/><path fill="#fff" stroke="#A8B6C6" stroke-width="1.25" d="M143.71 47.625h38.32c.555.03 1.069.538 1.103 1.107v18.847c0 .17-.108.45-.351.706-.238.252-.513.38-.734.38H143.71c-.212 0-.488-.126-.731-.38-.246-.259-.354-.54-.354-.706V48.71l.005-.065c.024-.163.133-.407.35-.636.245-.258.521-.384.73-.384Z"/><rect width="13.75" height="16.697" x="144.709" y="49.883" fill="#A8B6C6" rx="1"/><rect width="19.643" height="2.947" x="161.406" y="49.883" fill="#A8B6C6" rx="1"/><rect width="19.643" height="2.947" x="161.406" y="54.794" fill="#A8B6C6" rx="1"/><rect width="11.786" height="2.947" x="161.406" y="59.705" fill="#A8B6C6" rx="1"/><rect width="5.893" height="6.875" x="175.156" y="59.705" fill="#A8B6C6" rx="1"/><path fill="#fff" d="M171.458 22.916a1.457 1.457 0 1 0 0-2.915 1.457 1.457 0 0 0 0 2.915m4.859 0a1.457 1.457 0 1 0 0-2.915 1.457 1.457 0 0 0 0 2.915m4.858 0a1.457 1.457 0 1 0 .001-2.915 1.457 1.457 0 0 0-.001 2.915M144 21.5a1.5 1.5 0 0 1 1.5-1.5h6a1.5 1.5 0 0 1 0 3h-6a1.5 1.5 0 0 1-1.5-1.5"/><path fill="#112E51" d="M180.383 103.288h-34.766c-4.793 0-8.691-3.899-8.691-8.692V22.582c0-4.792 3.898-8.691 8.691-8.691h34.766c4.792 0 8.691 3.899 8.691 8.691v72.014c0 4.793-3.899 8.692-8.691 8.692m-34.766-86.914a6.214 6.214 0 0 0-6.208 6.208v72.014a6.214 6.214 0 0 0 6.208 6.208h34.766a6.214 6.214 0 0 0 6.208-6.208V22.582a6.215 6.215 0 0 0-6.208-6.208z"/><path fill="#EBF3FA" d="M187.832 40.586h.621c.341 0 .62.28.62.62v4.967c0 .341-.279.62-.62.62h-.621z"/><path fill="#112E51" d="M188.453 47.26h-1.086v-7.14h1.086c.599 0 1.087.488 1.087 1.087v4.966c0 .6-.488 1.086-1.087 1.086m-.155-.932h.155a.153.153 0 0 0 .155-.155v-4.967a.153.153 0 0 0-.155-.155h-.155z"/><path fill="#EBF3FA" d="M187.832 48.346h.621c.341 0 .62.28.62.62v4.967a.62.62 0 0 1-.62.621h-.621z"/><path fill="#112E51" d="M188.453 55.02h-1.086v-7.14h1.086c.599 0 1.087.488 1.087 1.087v4.966c0 .6-.488 1.087-1.087 1.087m-.155-.931h.155a.153.153 0 0 0 .155-.156v-4.966a.153.153 0 0 0-.155-.155h-.155z"/><path fill="#EBF3FA" d="M138.168 53.002h-.621a.62.62 0 0 1-.621-.62V41.206c0-.342.279-.621.621-.621h.621z"/><path fill="#112E51" d="M138.633 53.468h-1.087a1.087 1.087 0 0 1-1.086-1.087V41.206c0-.599.487-1.086 1.086-1.086h1.087zm-1.087-12.417a.153.153 0 0 0-.155.155v11.175c0 .087.068.155.155.155h.156V41.051z"/></g><circle cx="163" cy="44" r="42.5" stroke="#A8B6C6" stroke-width="3"/><circle cx="163" cy="44" r="42.5" stroke="#A8B6C6" stroke-width="3"/><path stroke="#A8B6C6" stroke-width="2" d="M89 44h32"/><circle cx="121" cy="44" r="3" fill="#F2F9FF" stroke="#A8B6C6" stroke-width="2"/><circle cx="87" cy="44" r="3" fill="#F2F9FF" stroke="#A8B6C6" stroke-width="2"/></svg>
